X: 19881
T: Jig
R: slip jig
M: 9/8
K: Amajor
agf|:e2B GBG ~E3|F2d d2f agf|e2B GBG ~E3|G2e e2g bag:|
e2a gbg ~e3|a2f f2d fga|g2e gbg ~e3|g2e a2f bgb|
g2e gbg ~e3|a2f f2d fga|g2e f2^d eze-|e2c B2A GFE||

